dist/svg/static/select-all-large.svg

<svg xmlns="http://www.w3.org/2000/svg" width="48" height="48" viewBox="0 0 48 48"><g fill="none" stroke="currentColor" stroke-miterlimit="10"><path d="M14.5 14.5h20.009v20H14.5zM22 7.5h5M14 7.5h5M30 7.5h5M22 41.5h5M14 41.5h5M30 41.5h5M41.5 27v-5M41.5 35v-5M41.5 19v-5M7.5 27v-5M7.5 35v-5M7.5 19v-5M11 7.5H8s-.5-.028-.5.5v3M38 7.5h3s.5-.028.5.5v3M11 41.5H8s-.5.028-.5-.5v-3M38 41.5h3s.5.028.5-.5v-3"/></g></svg>

<?xml version="1.0" encoding="UTF-8" standalone="no"?>
<svg width="48px" height="48px" viewBox="0 0 48 48" version="1.1" xmlns="http://www.w3.org/2000/svg" xmlns:xlink="http://www.w3.org/1999/xlink">
    <!-- Generator: sketchtool 46.2 (44496) - http://www.bohemiancoding.com/sketch -->
    <title>select-all-large</title>
    <desc>Created with sketchtool.</desc>
    <defs></defs>
    <g id="icons-published" stroke="none" stroke-width="1" fill="none" fill-rule="evenodd">
        <g id="briefing" transform="translate(-2880.000000, -1562.000000)"></g>
        <g id="select-all-large" stroke="#000000">
            <polygon id="Path" points="14.5 14.5 34.5 14.5 34.5 34.5 14.5 34.5"></polygon>
            <path d="M22,7.5 L27,7.5 M14,7.5 L19,7.5 M30,7.5 L35,7.5 M22,41.5 L27,41.5 M14,41.5 L19,41.5 M30,41.5 L35,41.5 M41.5,27 L41.5,22 M41.5,35 L41.5,30 M41.5,19 L41.5,14 M7.5,27 L7.5,22 M7.5,35 L7.5,30 M7.5,19 L7.5,14 M11,7.5 L8,7.5 C8,7.5 7.5,7.5 7.5,8 L7.5,11 M38,7.5 L41,7.5 C41,7.5 41.5,7.5 41.5,8 L41.5,11 M11,41.5 L8,41.5 C8,41.5 7.5,41.5 7.5,41 L7.5,38 M38,41.5 L41,41.5 C41,41.5 41.5,41.5 41.5,41 L41.5,38" id="Shape"></path>
        </g>
    </g>
</svg>
